assets/img/spinner/default.svg

<svg width="38" height="52" viewBox="0 0 38 52" fill="none" xmlns="http://www.w3.org/2000/svg">
<g clip-path="url(#clip0)">
<path d="M23.8983 24.0147C23.8494 23.9984 23.8413 23.9415 23.8657 23.9008L36.2658 11.4682V10.1419C36.2658 9.92222 36.0868 9.74322 35.8671 9.74322H13.0441V2.25761V0.0119324L4.61469 1.77756V3.05499H5.08661C5.08661 3.05499 7.15329 3.05499 7.15329 5.11353V9.74322H0.619657C0.489472 9.74322 0.383698 9.84899 0.383698 9.97918V12.8514H7.15329C7.15329 12.8514 7.15329 15.9758 7.15329 19.6128V28.7827C7.15329 33.7867 10.3591 37.2447 16.0058 36.789C17.2019 36.6914 18.3085 36.2276 19.2523 35.6174C19.6754 35.3489 19.9276 34.8851 19.9276 34.3806V32.8184C18.0888 34.0308 16.551 33.9738 16.551 33.9738C12.979 33.9738 13.0441 29.4499 13.0441 29.4499V12.8514H29.4718L17.6413 24.7714C17.6169 26.3336 17.5925 27.5622 17.5925 27.5866C17.5925 27.6192 17.6169 27.6599 17.6494 27.668C28.4954 29.5068 31.4164 36.5043 31.4164 38.5628C31.4164 38.5628 32.5799 48.4894 22.6534 49.1728C22.6534 49.1728 16.1523 49.4657 15.0132 46.8539C14.9725 46.7644 15.005 46.6586 15.0945 46.618C16.1767 46.1216 16.909 45.1615 16.909 43.8597C16.909 41.9232 15.7373 40.3528 13.2801 40.3528C11.2785 40.3528 9.6512 41.9232 9.6512 43.8597C9.6512 43.8597 8.72364 52.2159 22.6534 51.9799C38.601 51.7114 37.6002 38.3512 37.6002 38.3512C37.0713 28.7908 25.0455 24.4541 23.8983 24.0147Z" fill="white"/>
</g>
<defs>
<clipPath id="clip0">
<rect width="37.2327" height="51.9761" fill="white" transform="translate(0.383698 0.0119324)"/>
</clipPath>
</defs>
</svg>

<svg width="38" height="52" fill="none" xmlns="http://www.w3.org/2000/svg"><g clip-path="url(#a)"><path d="M23.898 24.015c-.049-.017-.057-.073-.032-.114l12.4-12.433v-1.326a.4.4 0 0 0-.399-.399H13.044V.012l-8.43 1.766v1.277h.473s2.066 0 2.066 2.059v4.63H.62a.236.236 0 0 0-.236.235v2.872h6.77v15.932c0 5.004 3.205 8.462 8.852 8.006 1.196-.098 2.302-.561 3.246-1.172.423-.268.676-.732.676-1.236v-1.563c-1.84 1.213-3.377 1.156-3.377 1.156-3.572 0-3.507-4.524-3.507-4.524v-16.6h16.428l-11.83 11.92c-.025 1.563-.05 2.791-.05 2.816 0 .032.025.073.057.081 10.846 1.839 13.767 8.836 13.767 10.895 0 0 1.164 9.926-8.763 10.61 0 0-6.5.293-7.64-2.32-.04-.089-.008-.194.082-.235 1.082-.496 1.814-1.457 1.814-2.758 0-1.937-1.172-3.507-3.629-3.507-2.002 0-3.629 1.57-3.629 3.507 0 0-.927 8.356 13.002 8.12C38.601 51.71 37.6 38.35 37.6 38.35c-.529-9.56-12.555-13.897-13.702-14.336Z" fill="#fff"/></g><defs><clipPath id="a"><path fill="#fff" transform="translate(.384 .012)" d="M0 0h37.233v51.976H0z"/></clipPath></defs></svg>
